X:1
T:Polska ur Trstadssamlingen
R:Slngpolska
B:Trstadsamlingen
O:Smland
M:3/4
L:1/8
K:Am
ee/2a/2 ee/2f/2 ee/2d/2|cc/2B/2 AA/2B/2 cc/2d/2|ee/2f/2 gg/2a/2 gg/2f/2|ef/2e/2 e/2d/2e/2f/2 e2:|
ef/2g/2 aa/2g/2 f/2g/2f/2e/2|de/2f/2 gg/2f/2 e/2f/2e/2d/2|cd/2e/2 ae dc|BA G/2A/2B/2A/2 GE|
AA/2B/2 c/2B/2c/2B/2 c/2B/2d/2B/2|A/2B/2c/2d/2 e/2d/2e/2f/2 ec|ea/2e/2 dc BA|c/2B/2A/2G/2 A2A,2:|
